X:1
T:Title
%%score { ( 1 4 ) | ( 2 3 ) }
L:1/8
M:4/4
K:C
V:1 treble nm="Grand Piano"
V:4 treble 
V:2 bass 
V:3 bass 
V:1
 z4 z2[Q:1/4=100] [CE]>[DF] | [EG]>[EG] [_E^F]>[=EG] [=FB]>[FA] [FB]>[Fd] | %2
 [Gd]>[Gc] [GB]>[Gc] D2 D>E | F>E F>[DG] [FA]>[FB] [Fc]>[Fd] | [EG]6 [CE]>[DF] | %5
 [EG]>[EG] [_E^F]>[=EG] [=FB]>[FA] [FB]>[Fd] | [Gd]>[Gc] [GB]>[Gc] A2 A2 | G>c c>d e<e d>d | %8
[M:3/4] [Ec]6 |[M:1/4] G2 |[M:4/4] c6 z2 | [EG]4 [CE]3 [EG] | %12
 [Ec]>[Ec] [Ec]>[Ec] [Ec]>[Ec] [^FB]>[Fc] | d6 z2 | e6 z2 | d4 A2 A2 | G>c c>d e<e d>d | %17
[M:3/4] [Ec]6 |] %18
V:2
 z4 z2 [C,G,]2 | [C,C]>[C,C] [C,C]>[C,C] [D,G,]>[D,G,] [D,G,]>[D,G,] | %2
 [E,C]>[E,C] [E,C]>[E,C] [F,A,]2 A,->[E,A,^C] | %3
 [D,A,D]>[E,A,^C] [D,A,D]>[B,,G,] [G,,G,]>[G,,G,] [G,,G,]>[G,,G,] | [C,G,]6 [C,G,]2 | %5
 [C,C]>[C,C] [C,C]>[C,C] [D,G,]>[D,G,] [D,G,]>[D,G,] | [E,C]>[E,C] [E,C]>[E,C] [F,CF]2 [^F,_E]2 | %7
 [G,CE]>[G,E] [G,E]>[G,F] [G,CG]<[G,CG] [G,B,F]>[G,F] |[M:3/4][K:bass] [C,G,]6 |[M:1/4] F2 | %10
[M:4/4] E4 z4 | [C,C]4 [C,G,]3 [C,C] | [C,G,]>[C,G,] [C,G,]>[C,G,] [A,,A,]>[A,,A,] [D,A,]>[D,A,] | %13
 [G,B,G]2 [D,A,]>[D,A,] [G,B,]2 z2 | G6 z2 | [F,A,F]4 [F,CF]2 [^F,C_E]2 | %16
 [G,CE]>[G,E] [G,E]>[G,F] [G,CG]<[G,CG] [G,B,F]>[G,F] |[M:3/4][K:bass] [C,G,]6 |] %18
V:3
 x8 | x8 | z4 z2 F,2 | x8 | x8 | x8 | x8 | x8 |[M:3/4][K:bass] x6 |[M:1/4] x2 | %10
[M:4/4] z2 C,2 [F,A,]>[F,B,F] [F,CF]>[F,A,F] | x8 | x8 | x8 | z2 C,2 C,>[C,G,] [C,G,]>[C,G,] | x8 | %16
 x8 |[M:3/4][K:bass] x6 |] %18
V:4
 x8 | x8 | x8 | x8 | x8 | x8 | x8 | x8 |[M:3/4] x6 |[M:1/4] x2 |[M:4/4] z2 G,2 F>B A>c | x8 | x8 | %13
 z2 ^F>F G2 G2 | z2 C2 C>[Ec] [DB]>[Ec] | x8 | x8 |[M:3/4] x6 |] %18

